!! 00000] TT[WS
!!!OTL: Guanggunr kuqi
!!!ARE: Asia, China, Shanxi Xingxian
!! Ethnic Group: Han
!! WII, 147 (1)
!!!SCT: J0623
!!!YEM: Copyright 1995, estate of Helmut Schaffrath.
**kern
*ICvox
*Ivox
*M2/4
*k[b-]
*F:
{4cc
8dd
8cc
=1
4.a
8cc
=2
8dd
8ff
8a
8cc
=3
2g}
=4
{4cc
8dd
8cc
=5
4a
4cc
=6
8dd
8cc
8a
8cc
=7
2g}
=8
{4g
4cc
=9
4cc
4dd
=10
4cc
4g
=11
4.a
8g}
=12
{4f
4a
=13
8g
8a
8f
8d
=14
2c}
=15
{4.a
8g
=16
4.f
8a
=17
4.g
8e
=18
2d
=19
8f
8f
8g
8f
=20
8d
8f
4c}
==
!!!AGN: Xiaodiao. Qingge, Aisu
!!!ONB: ESAC (Essen Associative Code) Database: CHINA
!!!AMT: simple duple
!!!AIN: vox
!!!EED: Helmut Schaffrath
!!!EEV: 1.0
*-
